X:1
T:Solitude (Showalter), CM
T:Solitude (Showalter), CM
T:Anthony Johnson Showalter, 1880
T:Public Domain Courtesy of the Cyber Hymnal™
C:Anthony Johnson Showalter, 1880
Z:Public Domain
Z:Courtesy of the Cyber Hymnal™
%%score ( 1 2 ) ( 3 4 )
L:1/8
Q:1/4=97
M:3/4
K:Bb
V:1 treble 
V:2 treble 
V:3 bass 
V:4 bass 
V:1
 [DF]2 | [EG][DF] [FB]2 [DF]2 | [FB][Fd] [Fc]2 [Fc]2 | [Fd][Fc] [FB]2 [EG]2 | [DF]4 [DF]2 | %5
 [EG][DF] [FB]2 [DF]2 | [FB][Fd] [Fc]2 [Fc]2 | [FB][EG] [DF]2 F2 | [DF]4 |] %9
V:2
 x2 | x6 | x6 | x6 | x6 | x6 | x6 | x4 (CE) | x4 |] %9
V:3
 [B,,B,]2 | [B,,B,][B,,B,] [B,,D]2 [B,,B,]2 | [D,B,][B,,B,] [F,A,]2 [F,A,]2 | %3
 [B,,B,][C,A,] [D,B,]2 [E,B,]2 | [B,,B,]4 [B,,B,]2 | [B,,B,][B,,B,] [B,,D]2 [B,,B,]2 | %6
 [D,B,][B,,B,] [F,A,]2 [F,A,]2 | [D,B,][E,B,] [F,B,]2 (A,C) | [B,,B,]4 |] %9
V:4
 x2 | x6 | x6 | x6 | x6 | x6 | x6 | x4 F,2 | x4 |] %9

